src/22/actions/labplot-xy-plot-four-axes.svg

<svg xmlns="http://www.w3.org/2000/svg" viewBox="0 0 22 22">
  <defs id="defs3051">
    <style type="text/css" id="current-color-scheme">
      .ColorScheme-Text {
        color:#5d656b;
      }
      </style>
  </defs>
 <path 
     style="fill:currentColor;fill-opacity:1;stroke:none" 
     d="M 3 3 L 3 19 L 4 19 L 20 19 L 20 18 L 20 3 L 4 3 L 3 3 z M 4 4 L 17.71875 4 L 17.25 4.46875 L 16.4375 5.28125 L 15.125 6.59375 L 13 4.46875 L 11.46875 6 L 11 6.46875 L 10.15625 7.28125 L 8.46875 9 L 7 9 L 6 9 L 5 9 L 4 9 L 4 4 z M 19 4.125 L 19 17.84375 L 18.71875 17.5625 L 17.96875 16.8125 L 17.125 16 L 15.84375 14.6875 L 15.125 14 L 13 16.09375 L 11.6875 14.8125 L 10.875 14 L 8.875 12 L 7 12 L 6 12 L 5 12 L 4 12 L 4 10 L 5 10 L 6 10 L 7 10 L 8.875 10 L 10.875 8 L 11.6875 7.15625 L 13 5.875 L 15.125 8 L 17.125 6 L 17.96875 5.15625 L 19 4.125 z M 4 13 L 5 13 L 6 13 L 7 13 L 8.46875 13 L 10.15625 14.6875 L 11 15.53125 L 11.46875 16 L 13 17.53125 L 13.53125 17 L 15.125 15.40625 L 16.4375 16.6875 L 16.9375 17.21875 L 17.25 17.53125 L 17.28125 17.5625 L 17.71875 18 L 4 18 L 4 13 z "
     class="ColorScheme-Text"
     />
</svg>

<svg xmlns="http://www.w3.org/2000/svg" viewBox="0 0 22 22"><path d="M3 3v16h17V3H3zm1 1h13.719l-.469.469-.813.812-1.312 1.313L13 4.469 11.469 6 11 6.469l-.844.812L8.47 9H4V4zm15 .125v13.719l-.281-.282-.75-.75-.844-.812-1.281-1.313-.719-.687L13 16.094l-1.313-1.282-.812-.812-2-2H4v-2h4.875l2-2 .813-.844L13 5.875 15.125 8l2-2 .844-.844L19 4.125zM4 13h4.469l1.687 1.688.844.843.469.469L13 17.531l.531-.531 1.594-1.594 1.313 1.281.5.532.312.312.031.032.438.437H4v-5z" fill="currentColor" color="#5d656b"/></svg>
